svgs/sharp-regular/chess-king.svg

<svg xmlns="http://www.w3.org/2000/svg" viewBox="0 0 448 512"><!--! Font Awesome Pro 6.6.0 by @fontawesome - https://fontawesome.com License - https://fontawesome.com/license (Commercial License) Copyright 2024 Fonticons, Inc. --><path d="M248 24l0-24L200 0l0 24 0 32-32 0-24 0 0 48 24 0 32 0 0 40L48 144 0 144l0 48 0 24L59.1 352l52.3 0L48 206l0-14 152 0 48 0 152 0 0 14L336.5 352l52.3 0L448 216l0-24 0-48-48 0-152 0 0-40 32 0 24 0 0-48-24 0-32 0 0-32zM84.7 464l16.6-32 245.6 0 16.6 32L84.7 464zM416 461.3L376 384 72 384 32 461.3l0 2.7 0 48 48 0 288 0 48 0 0-48 0-2.7z"/></svg>

<svg xmlns="http://www.w3.org/2000/svg" viewBox="0 0 448 512"><!--! Font Awesome Pro 6.5.2 by @fontawesome - https://fontawesome.com License - https://fontawesome.com/license (Commercial License) Copyright 2024 Fonticons, Inc. --><path d="M248 24V0H200V24 56H168 144v48h24 32v40H48 0v48 24L59.1 352h52.3L48 206V192H200h48H400v14L336.5 352h52.3L448 216V192 144H400 248V104h32 24V56H280 248V24zM84.7 464l16.6-32H346.8l16.6 32H84.7zM416 461.3L376 384H72L32 461.3V464v48H80 368h48V464v-2.7z"/></svg>
